icons/folder-zip-fill.svg

<svg viewBox="0 0 24 24" fill="currentColor" xmlns="http://www.w3.org/2000/svg"><path d="M21 5C21.5523 5 22 5.44772 22 6V20C22 20.5523 21.5523 21 21 21H3C2.44772 21 2 20.5523 2 20V4C2 3.44772 2.44772 3 3 3H10.4142L12.4142 5H16V7H18V5H21ZM18 13H16V15H14V18H18V13ZM16 11H14V13H16V11ZM18 9H16V11H18V9ZM16 7H14V9H16V7Z"/></svg>

<svg xmlns="http://www.w3.org/2000/svg" viewBox="0 0 24 24">
    <g>
        <path fill="none" d="M0 0h24v24H0z"/>
        <path fill-rule="nonzero" d="M21 5a1 1 0 0 1 1 1v14a1 1 0 0 1-1 1H3a1 1 0 0 1-1-1V4a1 1 0 0 1 1-1h7.414l2 2H16v2h2V5h3zm-3 8h-2v2h-2v3h4v-5zm-2-2h-2v2h2v-2zm2-2h-2v2h2V9zm-2-2h-2v2h2V7z"/>
    </g>
</svg>
